X: 21753
T: King Of The Fairies
R: hornpipe
M: 4/4
K: Edorian
|:(3B,C^D|E^DEF GFGA|B2B2 G3A|B<E E^D EFGE|FGFE D2B,2|
E^DEF GFGA|BAGB d3=c|B.b E2 GFE^D|E6 (3B,C^D|
E^DEF GFGA|B2B2 G3A|B<E E^D EFGE|FGFE ^D3B,|
E^D E<F GFGA|BAGB ded=c|B.b E2 GF E<^D|E6 (3B^c^d||
e2e2 Bdef|gagf e/f/(gg2)|e2B=c BAB^c|dedc d^d3|
e2d2 Bdef|gagf efed|Bd e<g fedf|e6 ef|
g2 (3gab f2 (3fga|ed B<c d3e|dBAF GA B<c|dB A<F GFED|
B,2E2 EFGA|B2e2 e3f|e2B=c BAGF|E6:|

